X: 2248
M: C
L: 1/8
K: Edor
(udc) |:\
(vBE) (3EEE BEGA | BcdB ADFA |\
(BE) (3EEE GEGA | Be^df [1 ge=dc :|[2 gee2 |]
|:\
e^def gfe=c | BAGF E2 |]


